wiki/extensions/MobileFrontend/resources/mobile.mainMenu/images/hamburger.svg

<?xml version="1.0" encoding="UTF-8" standalone="no"?><svg xmlns="http://www.w3.org/2000/svg" width="48" height="48" viewBox="0 0 48 48"><path d="M46 5.432v7.133c0 .242-.148.435-.328.435h-43.344c-.175 0-.328-.197-.328-.435v-7.133c0-.234.153-.432.328-.432h43.344c.18 0 .328.198.328.432zm0 30v7.133c0 .242-.148.435-.328.435h-43.344c-.175 0-.328-.197-.328-.435v-7.133c0-.234.153-.432.328-.432h43.344c.18 0 .328.198.328.432zm0-15v7.133c0 .242-.148.435-.328.435h-43.344c-.175 0-.328-.197-.328-.435v-7.133c0-.234.153-.432.328-.432h43.344c.18 0 .328.198.328.432z" fill="#565656"/></svg>

<?xml version="1.0" encoding="UTF-8" standalone="no"?>
<svg xmlns="http://www.w3.org/2000/svg" width="48" height="48" viewBox="0 0 48 48">
    <path d="M46 5.432v7.133c0 .242-.148.435-.328.435H2.328C2.153 13 2 12.803 2 12.565V5.432C2 5.198 2.153 5 2.328 5h43.344c.18 0 .328.198.328.432zm0 30v7.133c0 .242-.148.435-.328.435H2.328C2.153 43 2 42.803 2 42.565v-7.133c0-.234.153-.432.328-.432h43.344c.18 0 .328.198.328.432zm0-15v7.133c0 .242-.148.435-.328.435H2.328C2.153 28 2 27.803 2 27.565v-7.133c0-.234.153-.432.328-.432h43.344c.18 0 .328.198.328.432z" fill="#565656"/>
</svg>
